symbols/web/disc_full/materialsymbolsrounded/disc_full_wght200gradN25_24px.svg

<svg xmlns="http://www.w3.org/2000/svg" height="24" width="24"><path d="M11.675 15.4q1.425 0 2.413-.988.987-.987.987-2.412 0-1.425-.987-2.413Q13.1 8.6 11.675 8.6q-1.45 0-2.425.987-.975.988-.975 2.413 0 1.425.975 2.412.975.988 2.425.988Zm0-2.425q-.425 0-.7-.287Q10.7 12.4 10.7 12q0-.425.275-.7.275-.275.7-.275.4 0 .688.275.287.275.287.7 0 .4-.287.688-.288.287-.688.287Zm6.55 4.925q-1.275 1.4-2.975 2.175-1.7.775-3.575.775-1.85 0-3.462-.7-1.613-.7-2.8-1.9-1.188-1.2-1.888-2.8-.7-1.6-.7-3.45 0-1.825.7-3.438.7-1.612 1.888-2.812 1.187-1.2 2.8-1.9 1.612-.7 3.462-.7 2.525 0 4.65 1.312Q18.45 5.775 19.575 8q.075.15.013.337-.063.188-.238.263-.15.075-.35.012-.2-.062-.3-.262-1.025-1.95-2.912-3.113-1.888-1.162-4.113-1.162-3.325 0-5.625 2.312Q3.75 8.7 3.75 12q0 3.3 2.3 5.613 2.3 2.312 5.625 2.312 1.7 0 3.188-.713 1.487-.712 2.662-1.937.175-.2.388-.163.212.038.362.238.1.125.088.288-.013.162-.138.262Zm2.35.05q-.175 0-.312-.138-.138-.137-.138-.337V11q0-.175.138-.312.137-.138.312-.138.2 0 .338.138.137.137.137.312v6.475q0 .2-.137.337-.138.138-.338.138Zm.025 2.525q-.25 0-.425-.163Q20 20.15 20 19.9q0-.25.175-.413.175-.162.425-.162t.413.162q.162.163.162.413 0 .25-.162.412-.163.163-.413.163ZM18.225 17.9q.125-.1.138-.262.012-.163-.088-.288-.15-.2-.362-.238-.213-.037-.388.163-1.175 1.225-2.662 1.937-1.488.713-3.188.713-3.325 0-5.625-2.312Q3.75 15.3 3.75 12q0-3.3 2.3-5.613 2.3-2.312 5.625-2.312 2.225 0 4.113 1.162Q17.675 6.4 18.7 8.35q.1.2.3.262.2.063.35-.012.175-.075.238-.263.062-.187-.013-.337.1.175.15.3.05.125.15.325h-.2q-.6.025-.987.45-.388.425-.388 1.075v7.65Z"/></svg>

<svg xmlns="http://www.w3.org/2000/svg" height="24" width="24"><path d="M11.675 15.4Q13.1 15.4 14.088 14.412Q15.075 13.425 15.075 12Q15.075 10.575 14.088 9.587Q13.1 8.6 11.675 8.6Q10.225 8.6 9.25 9.587Q8.275 10.575 8.275 12Q8.275 13.425 9.25 14.412Q10.225 15.4 11.675 15.4ZM11.675 12.975Q11.25 12.975 10.975 12.688Q10.7 12.4 10.7 12Q10.7 11.575 10.975 11.3Q11.25 11.025 11.675 11.025Q12.075 11.025 12.363 11.3Q12.65 11.575 12.65 12Q12.65 12.4 12.363 12.688Q12.075 12.975 11.675 12.975ZM18.225 17.9Q16.95 19.3 15.25 20.075Q13.55 20.85 11.675 20.85Q9.825 20.85 8.213 20.15Q6.6 19.45 5.413 18.25Q4.225 17.05 3.525 15.45Q2.825 13.85 2.825 12Q2.825 10.175 3.525 8.562Q4.225 6.95 5.413 5.75Q6.6 4.55 8.213 3.85Q9.825 3.15 11.675 3.15Q14.2 3.15 16.325 4.462Q18.45 5.775 19.575 8Q19.65 8.15 19.588 8.337Q19.525 8.525 19.35 8.6Q19.2 8.675 19 8.612Q18.8 8.55 18.7 8.35Q17.675 6.4 15.788 5.237Q13.9 4.075 11.675 4.075Q8.35 4.075 6.05 6.387Q3.75 8.7 3.75 12Q3.75 15.3 6.05 17.613Q8.35 19.925 11.675 19.925Q13.375 19.925 14.863 19.212Q16.35 18.5 17.525 17.275Q17.7 17.075 17.913 17.112Q18.125 17.15 18.275 17.35Q18.375 17.475 18.363 17.638Q18.35 17.8 18.225 17.9ZM20.575 17.95Q20.4 17.95 20.263 17.812Q20.125 17.675 20.125 17.475V11Q20.125 10.825 20.263 10.688Q20.4 10.55 20.575 10.55Q20.775 10.55 20.913 10.688Q21.05 10.825 21.05 11V17.475Q21.05 17.675 20.913 17.812Q20.775 17.95 20.575 17.95ZM20.6 20.475Q20.35 20.475 20.175 20.312Q20 20.15 20 19.9Q20 19.65 20.175 19.487Q20.35 19.325 20.6 19.325Q20.85 19.325 21.013 19.487Q21.175 19.65 21.175 19.9Q21.175 20.15 21.013 20.312Q20.85 20.475 20.6 20.475ZM18.225 17.9Q18.35 17.8 18.363 17.638Q18.375 17.475 18.275 17.35Q18.125 17.15 17.913 17.112Q17.7 17.075 17.525 17.275Q16.35 18.5 14.863 19.212Q13.375 19.925 11.675 19.925Q8.35 19.925 6.05 17.613Q3.75 15.3 3.75 12Q3.75 8.7 6.05 6.387Q8.35 4.075 11.675 4.075Q13.9 4.075 15.788 5.237Q17.675 6.4 18.7 8.35Q18.8 8.55 19 8.612Q19.2 8.675 19.35 8.6Q19.525 8.525 19.588 8.337Q19.65 8.15 19.575 8Q19.675 8.175 19.725 8.3Q19.775 8.425 19.875 8.625H19.675Q19.075 8.65 18.688 9.075Q18.3 9.5 18.3 10.15V17.8Z"/></svg>
